X: 162
T:Agnus Dei
N: Derived from Jos1311-Agnus_Dei.krn
C: Josquin des Prez
%%abc-version 2.0
%%abcx-abcm2ps-target-version 5.9.1 (29 Sep 2008)
%%abc-creator hum2abc beta
%%abcx-conversion-date 2019/02/12 16:15:46
%%abc-edited-by Jesse Rodin
%%abc-edited-by Jesse Rodin 8/17/2013
%%abcx-initial-encoding-date 2013/08/17/
%%humdrum-veritas 1464044755
%%humdrum-veritas-data 1585096675
%%linebreak <none>
%%barnumbers 0
L: 1/4
M: 2/1
Q: 1/2=120
%%staves {1 2}
V: 1 clef=treble
V: 2 clef=treble-8
K: C
[V:1] z4A4- | 
[V:2] d8 | 
[V:1] A4G4 | 
[V:2] c4B4 | 
[V:1] F4E4 | 
[V:2] A4z2c2- | 
[V:1] z2G4G2 | 
[V:2] c2c2B3c | 
[V:1] F3GE4 | 
[V:2] A4G2g2- | 
[V:1] D2d4d2 | 
[V:2] g2g2f3g | 
[V:1] c3dB4 | 
[V:2] e4d4 | 
[V:1] A2cBAGA2- | 
[V:2] z2c4c2 | 
[V:1] AGG4^F2 | 
[V:2] B3cA4 | 
[V:1] G4z2B2- | 
[V:2] z2e4e2 | 
[V:1] B2B2d2A2 | 
[V:2] g2d2f4 | 
[V:1] c4G4 | 
[V:2] c4z2e2- | 
[V:1] z2B4B2 | 
[V:2] e2e2g2d2 | 
[V:1] d2A2c4 | 
[V:2] f3e/d/c2d2 | 
[V:1] G2A2B4 | 
[V:2] e4d2g2 | 
[V:1] A2c2c2B2 | 
[V:2] g2f2e3d | 
[V:1] A3GF2E2 | 
[V:2] c2B2A2GA | 
[V:1] D2F2E4 | 
[V:2] Bcd2^cdB^c | 
[V:1] D8 | 
[V:2] d4z2f2 | 
[V:1] z2c2B2G2 | 
[V:2] e2c2d2B2 | 
[V:1] A3G/F/E2c2 | 
[V:2] A2f2g2e2 | 
[V:1] d2B2c3B/A/ | 
[V:2] f2d2c2f2 | 
[V:1] G3AB2A2- | 
[V:2] e2c2d3c/B/ | 
[V:1] A2G4^F2 | 
[V:2] cBAGA4 | 
[V:1] G8 |]  
[V:2] G8 |]  



